X:51
T:The Tea-Totaller Reel
N:Allan's  #51  pp13
N:Trad/Anon
B:Allan's Irish Fiddler (pub. Mozart Allen,  Glascow) date unknown
Z:FROM ALLAN'S TO NOTEWORTHY, FROM NOTEWORTHY TO ABC, MIDI AND .TXT BY VINCE
BRENNAN Dec. 2002 (HTTP://WWW.SOSYOURMOM.COM)
I:abc2nwc
M:2/2
L:1/8
K:G
((3DEF)|G2{A}GF GABc|d2(ec) dBAc|BE{F}ED EFGA|
BGAF GFED|G2{A}GF GABc|
dBge dBAc|BE{F}ED EFGA|BGAF G2:|
|:(GA)|Beed e2(ef)|geaf gfed|Bddc d2(de)|fdfa gfed|
Beed e2(ef)|geaf gfed|BE{F}ED EFGA|BGAF G2:|
